brandFactory_export/2.Regular/Conexiones_2Regular.svg

<?xml version="1.0" encoding="UTF-8"?>
<svg width="24px" height="24px" viewBox="0 0 24 24" version="1.1" xmlns="http://www.w3.org/2000/svg" xmlns:xlink="http://www.w3.org/1999/xlink">
    <title>2.Regular/Conexiones_2Regular</title>
    <g id="Symbols" stroke="none" stroke-width="1" fill="none" fill-rule="evenodd">
        <g id="2.Regular/Conexiones_2Regular" fill="#5CB615" fill-rule="nonzero">
            <path d="M19.0789916,19.4957983 C17.394958,19.4957983 16.0268908,18.1277311 16.0268908,16.4436975 C16.0268908,14.7596639 17.3983193,13.3915966 19.0789916,13.3915966 C20.7630252,13.3915966 22.1344538,14.7596639 22.1344538,16.4436975 C22.1344538,18.1243697 20.7630252,19.4957983 19.0789916,19.4957983 M7.79159664,8.7394958 C7.79495798,7.11596639 9.1092437,5.80504202 10.7327731,5.80168067 C12.3563025,5.80168067 13.6705882,7.11596639 13.6739496,8.7394958 C13.6705882,10.3630252 12.3563025,11.6773109 10.7327731,11.6773109 C9.1092437,11.6773109 7.79159664,10.3630252 7.79159664,8.7394958 M3.36134454,17.2672269 C2.36302521,17.2672269 1.55630252,16.4571429 1.55630252,15.4588235 C1.58991597,14.4605042 2.42352941,13.6773109 3.42184874,13.7109244 C4.37310924,13.7411765 5.1394958,14.507563 5.1697479,15.4588235 C5.1697479,16.4605042 4.35966387,17.2672269 3.36134454,17.2672269 M10.7462185,22.0773109 C10.0605042,22.0773109 9.50252101,21.5193277 9.50252101,20.8336134 C9.50252101,20.1445378 10.0605042,19.589916 10.7495798,19.589916 C11.4352941,19.589916 11.9932773,20.1478992 11.9932773,20.8336134 C11.9932773,21.5193277 11.4352941,22.0773109 10.7462185,22.0773109 M3.36470588,3.98655462 C2.6789916,3.98655462 2.12436975,3.42857143 2.1210084,2.74285714 C2.1210084,2.05378151 2.6789916,1.49915966 3.36806723,1.49915966 C4.05378151,1.49915966 4.61176471,2.05714286 4.61176471,2.74285714 C4.61176471,3.42857143 4.05042017,3.98655462 3.36470588,3.98655462 M20.5546218,4.59495798 C21.3445378,4.59495798 21.9831933,5.23697479 21.9831933,6.02352941 C21.9831933,6.81344538 21.3411765,7.45210084 20.5546218,7.45210084 C19.7647059,7.45210084 19.1260504,6.81344538 19.1260504,6.02352941 C19.1260504,5.23361345 19.7647059,4.59495798 20.5546218,4.59495798 M19.0789916,11.8689076 C17.9697479,11.8689076 16.9647059,12.2823529 16.1714286,12.9411765 L14.3462185,11.3378151 C14.897479,10.5815126 15.1966387,9.67394958 15.1966387,8.7394958 C15.1966387,8.62521008 15.1697479,8.51764706 15.1630252,8.40672269 L18.0436975,7.55630252 C18.5747899,8.43361345 19.5260504,8.97142857 20.5546218,8.97478992 C22.1848739,8.97478992 23.5058824,7.65042017 23.5058824,6.02352941 C23.4621849,4.39327731 22.107563,3.10588235 20.4773109,3.14621849 C18.9042017,3.18655462 17.6403361,4.45042017 17.6,6.02352941 C17.6,6.04705882 17.6067227,6.07058824 17.6067227,6.09747899 L14.7966387,6.92773109 C14.0806723,5.3210084 12.487395,4.28571429 10.7294118,4.28235294 C9.5394958,4.28235294 8.4,4.75630252 7.56638655,5.6 L5.77815126,4.06722689 C5.99663866,3.67058824 6.13445378,3.22352941 6.13445378,2.7394958 C6.10420168,1.21344538 4.84033613,-0.00336134454 3.31092437,0.0268907563 C1.82184874,0.0537815126 0.621848739,1.25378151 0.594957983,2.74285714 C0.594957983,4.26890756 1.83865546,5.5092437 3.36134454,5.5092437 C3.8487395,5.5092437 4.29915966,5.37142857 4.69579832,5.14957983 L6.69579832,6.86386555 C6.41344538,7.45210084 6.26890756,8.09411765 6.26554622,8.74285714 C6.26554622,9.69411765 6.57142857,10.5747899 7.08235294,11.3008403 L5.45210084,12.8941176 C4.86386555,12.4067227 4.12436975,12.1378151 3.35798319,12.1378151 C1.52268908,12.1378151 0.0302521008,13.6268908 0.0268907563,15.4621849 C0.0302521008,17.3008403 1.51932773,18.789916 3.35798319,18.7932773 C5.19663866,18.7932773 6.68907563,17.3008403 6.68907563,15.4621849 C6.68907563,14.9781513 6.57815126,14.5176471 6.39327731,14.1042017 L8.15798319,12.3798319 C9.67731092,13.4655462 11.7176471,13.4789916 13.2537815,12.4168067 L15.1697479,14.1008403 C14.7529412,14.7865546 14.5008403,15.5865546 14.5008403,16.4470588 C14.5008403,17.0420168 14.6218487,17.6033613 14.8302521,18.1243697 L12.8369748,19.0420168 C12.3159664,18.4268908 11.5529412,18.0739496 10.7462185,18.0705882 C9.21680672,18.0705882 7.97983193,19.307563 7.97647059,20.8369748 C7.97983193,22.3630252 9.21680672,23.6033613 10.7462185,23.6033613 C12.2722689,23.6033613 13.512605,22.3663866 13.512605,20.8369748 C13.512605,20.6957983 13.492437,20.5613445 13.4722689,20.4268908 L15.6369748,19.4319328 C16.4739496,20.3966387 17.697479,21.0218487 19.0756303,21.0218487 C21.6,21.0218487 23.6504202,18.9747899 23.6537815,16.4470588 C23.6537815,13.9193277 21.6067227,11.8722689 19.0789916,11.8689076" id="Conexiones_2Regular"></path>
        </g>
    </g>
</svg>

<svg width="24" height="24" viewBox="0 0 24 24" xmlns="http://www.w3.org/2000/svg"><path d="M19.079 19.496a3.054 3.054 0 01-3.052-3.052 3.056 3.056 0 013.052-3.052 3.057 3.057 0 013.055 3.052 3.06 3.06 0 01-3.055 3.052M7.792 8.739a2.942 2.942 0 015.882 0 2.942 2.942 0 01-5.882 0m-4.43 8.528c-.999 0-1.806-.81-1.806-1.808a1.807 1.807 0 013.614 0c0 1.002-.81 1.808-1.809 1.808m7.385 4.81a1.244 1.244 0 11.003-2.487c.686 0 1.244.558 1.244 1.244 0 .685-.558 1.243-1.247 1.243M3.365 3.987A1.244 1.244 0 113.368 1.5c.686 0 1.244.557 1.244 1.243S4.05 3.987 3.365 3.987m17.19.608a1.43 1.43 0 11-.002 2.859 1.43 1.43 0 01.002-2.859m-1.476 7.274c-1.11 0-2.114.413-2.908 1.072l-1.825-1.603a4.41 4.41 0 00.85-2.599c0-.114-.026-.221-.033-.332l2.88-.85a2.945 2.945 0 002.512 1.418 2.953 2.953 0 002.95-2.951 2.957 2.957 0 00-3.028-2.878A2.953 2.953 0 0017.6 6.024c0 .023.007.047.007.073l-2.81.83a4.462 4.462 0 00-4.068-2.645c-1.19 0-2.329.474-3.163 1.318L5.778 4.067c.219-.396.356-.843.356-1.328a2.77 2.77 0 00-5.539.004 2.77 2.77 0 002.766 2.766c.488 0 .938-.138 1.335-.36l2 1.715a4.392 4.392 0 00-.43 1.879c0 .951.305 1.832.816 2.558l-1.63 1.593a3.282 3.282 0 00-2.094-.756 3.333 3.333 0 00-3.331 3.324 3.337 3.337 0 003.331 3.331 3.332 3.332 0 003.331-3.33c0-.485-.11-.945-.296-1.359l1.765-1.724a4.433 4.433 0 005.096.037L15.17 14.1a4.504 4.504 0 00-.67 2.346c0 .595.122 1.156.33 1.677l-1.993.918a2.75 2.75 0 00-2.09-.971 2.77 2.77 0 00-2.77 2.766 2.772 2.772 0 002.77 2.766 2.767 2.767 0 002.766-2.766c0-.141-.02-.276-.04-.41l2.164-.995c.837.965 2.06 1.59 3.439 1.59a4.58 4.58 0 004.578-4.575 4.578 4.578 0 00-4.575-4.578" fill="#5CB615" fill-rule="nonzero"/></svg>
